svg/jabber.svg

<svg xmlns="http://www.w3.org/2000/svg" viewBox="0 0 24 24"><path d="M5.23 5.72C4.61 5.55 5 3.19 5 3.17c0 .02 7.58-3.88 11.7 2.56 4.1 6.42-.84 9.13-2.73 10.33-1.89 1.21-1.24 3.66-1.24 4.07 0 .4-.57.84-.73.28-.12-.57-.75-3.86 1.33-5.25 3.8-2.55 4.57-5.06 2.67-8.74C14.2 3 8.28 3.41 7.03 4.08s-1.17 1.81-1.8 1.64m4.1 6.91-.22-.47c.12-1.88-1.48-1.77-1.03 1.17.13.83-.61.47-.63.4-.56-2.29-.03-3.51 1.1-3.28 1.07.23.98 1.38.98 1.38.03-.05 1.47-1.66 1.97-.91 1.08 1.58-.97 3.55-1.09 3.71-.13.15-.27.42-.49.21-.22-.2-.2-.34-.03-.57 2.88-4.27-.3-2.05-.56-1.64m-2.83 2.7v-.02s1.5 2.82 4.11 1.77c.39-.16.56.06.59.19.07.26-.07.37-.34.46-3 .99-4.97-1.1-5.23-1.6-.24-.45-.13-.75.12-.91s.75.11.75.11M6 17.5s1.67 2 4.8 1.5c.29-.06.4.13.45.38s-.03.46-.33.56c-.29.09-3.84.56-5.79-2.22-.13-.16.17-.36.34-.36s.56.14.53.14m-.05 1.89c1.58 2.11 4.38 2.16 5.33 1.49.22-.15.42.17.28.31-1.92 1.97-5.89-.19-6.29-.86-.18-.28-.14-.67.04-.88.19-.2.62-.07.64-.06"/></svg>

<?xml version="1.0" encoding="UTF-8"?><!DOCTYPE svg PUBLIC "-//W3C//DTD SVG 1.1//EN" "http://www.w3.org/Graphics/SVG/1.1/DTD/svg11.dtd"><svg xmlns="http://www.w3.org/2000/svg" xmlns:xlink="http://www.w3.org/1999/xlink" version="1.1" id="mdi-jabber" width="24" height="24" viewBox="0 0 24 24"><path d="M5.23,5.72C4.61,5.55 5,3.19 5,3.17C5,3.19 12.58,-0.71 16.7,5.73C20.8,12.15 15.86,14.86 13.97,16.06C12.08,17.27 12.73,19.72 12.73,20.13C12.73,20.53 12.16,20.97 12,20.41C11.88,19.84 11.25,16.55 13.33,15.16C17.13,12.61 17.9,10.1 16,6.42C14.2,3 8.28,3.41 7.03,4.08C5.78,4.75 5.86,5.89 5.23,5.72M9.33,12.63L9.11,12.16C9.23,10.28 7.63,10.39 8.08,13.33C8.21,14.16 7.47,13.8 7.45,13.73C6.89,11.44 7.42,10.22 8.55,10.45C9.62,10.68 9.53,11.83 9.53,11.83C9.56,11.78 11,10.17 11.5,10.92C12.58,12.5 10.53,14.47 10.41,14.63C10.28,14.78 10.14,15.05 9.92,14.84C9.7,14.64 9.72,14.5 9.89,14.27C12.77,10 9.59,12.22 9.33,12.63M6.5,15.33V15.31C6.5,15.31 8,18.13 10.61,17.08C11,16.92 11.17,17.14 11.2,17.27C11.27,17.53 11.13,17.64 10.86,17.73C7.86,18.72 5.89,16.63 5.63,16.13C5.39,15.68 5.5,15.38 5.75,15.22C6,15.06 6.5,15.33 6.5,15.33M6,17.5C6,17.5 7.67,19.5 10.8,19C11.09,18.94 11.2,19.13 11.25,19.38C11.3,19.63 11.22,19.84 10.92,19.94C10.63,20.03 7.08,20.5 5.13,17.72C5,17.56 5.3,17.36 5.47,17.36C5.64,17.36 6.03,17.5 6,17.5M5.95,19.39C7.53,21.5 10.33,21.55 11.28,20.88C11.5,20.73 11.7,21.05 11.56,21.19C9.64,23.16 5.67,21 5.27,20.33C5.09,20.05 5.13,19.66 5.31,19.45C5.5,19.25 5.93,19.38 5.95,19.39Z" /></svg>
